src/svgs/info.svg

<?xml version="1.0" encoding="UTF-8" standalone="no"?>
<svg
   viewBox="0 0 32 32"
   version="1.1"
   id="svg961"
   xmlns="http://www.w3.org/2000/svg"
   xmlns:svg="http://www.w3.org/2000/svg">
  <defs
     id="defs965" />
  <path
     id="path957"
     d="M 15 6.0996094 C 13 6.2996094 11.299219 6.9992188 9.6992188 8.1992188 C 7.8992188 9.6992188 6.6992187 11.500781 6.1992188 13.800781 C 6.0992188 14.300781 6 14.900391 6 15.400391 L 6 17 C 6.2 18.7 6.6992187 20.299219 7.6992188 21.699219 C 8.7992187 23.299219 10.299609 24.600781 12.099609 25.300781 C 13.199609 25.700781 14.300391 25.999609 15.400391 26.099609 L 17 26.099609 C 19.4 25.899609 21.499219 24.899609 23.199219 23.099609 C 24.599219 21.699609 25.500391 19.999609 25.900391 18.099609 C 26.000391 17.599609 25.999609 17.199219 26.099609 16.699219 L 26.099609 15.599609 C 25.999609 15.399609 26 15.299609 26 15.099609 C 25.9 13.399609 25.300391 11.9 24.400391 10.5 C 23.000391 8.4 20.999609 7.0003906 18.599609 6.4003906 C 17.899609 6.2003906 17.199609 6.0996094 16.599609 6.0996094 L 15 6.0996094 z M 16.199219 7.5 C 20.799219 7.6 24.599609 11.3 24.599609 16 C 24.499609 20.7 20.7 24.5 16 24.5 C 11.3 24.5 7.5996094 20.7 7.5996094 16 C 7.5996094 11.3 11.399219 7.5 16.199219 7.5 z M 15.800781 9.9003906 C 14.800781 9.9003906 14.099609 10.699609 14.099609 11.599609 C 14.099609 12.499609 14.900781 13.300781 15.800781 13.300781 C 16.800781 13.300781 17.5 12.499609 17.5 11.599609 C 17.5 10.699609 16.700781 9.9003906 15.800781 9.9003906 z M 17.599609 14.5 C 15.999609 14.6 14.500391 14.599219 12.900391 14.699219 L 12.900391 15.5 L 13.900391 15.5 C 14.300391 15.5 14.5 15.799219 14.5 16.199219 L 14.5 20.800781 C 14.5 21.200781 14.300391 21.400391 13.900391 21.400391 L 13 21.400391 L 13 22.199219 L 19 22.199219 L 19 21.400391 L 18.400391 21.400391 C 18.200391 21.400391 18.100391 21.400781 17.900391 21.300781 C 17.700391 21.300781 17.699609 21.1 17.599609 21 L 17.599609 14.5 z " />
</svg>

<svg xmlns="http://www.w3.org/2000/svg" viewBox="0 0 32 32"><path d="M26 15.1c-.1-1.7-.7-3.2-1.6-4.6C23 8.4 21 7 18.6 6.4c-.7-.2-1.4-.3-2-.3H15c-2 .2-3.7.9-5.3 2.1-1.8 1.5-3 3.3-3.5 5.6-.1.5-.2 1.1-.2 1.6V17c.2 1.7.7 3.3 1.7 4.7 1.1 1.6 2.6 2.9 4.4 3.6 1.1.4 2.2.7 3.3.8H17c2.4-.2 4.5-1.2 6.2-3 1.4-1.4 2.3-3.1 2.7-5 .1-.5.1-.9.2-1.4v-1.1c-.1-.2-.1-.3-.1-.5zm-10 9.4c-4.7 0-8.4-3.8-8.4-8.5s3.8-8.5 8.6-8.5c4.6.1 8.4 3.8 8.4 8.5-.1 4.7-3.9 8.5-8.6 8.5z"/><path d="M18.4 21.4c-.2 0-.3 0-.5-.1-.2 0-.2-.2-.3-.3v-6.5c-1.6.1-3.1.1-4.7.2v.8h1c.4 0 .6.3.6.7v4.6c0 .4-.2.6-.6.6H13v.8h6v-.8h-.6zm-2.6-8.1c1 0 1.7-.8 1.7-1.7 0-.9-.8-1.7-1.7-1.7-1 0-1.7.8-1.7 1.7 0 .9.8 1.7 1.7 1.7z"/></svg>
